X: 4070
T: WEE NANNIE
R: Strathspey.
%R: strathspey
B: James Kerr "Merry Melodies" v.4 p.10 #70
Z: 2016 John Chambers <jc:trillian.mit.edu>
M: C
L: 1/16
K: D
uF3uG |\
Ad3 c3B A3FD3E | FB3 A3F E4 F3G |\
Ad3 c3B A3FD3F |[1 E3A cBA^G A4 :|[2 A3d fedc d4 ||
|:\
(3(A2B2c2) |\
d3ef3d e3cA4 | B3cd3B A3FD4 |\
d3ef3d e3cA3d |[1 c3e edcB A4 :|[2 A3d fedc d4 |]

%%sep 1 1 500
%%sep 1 1 500

